ion/logo-twitter.svg

<svg viewBox="0 0 512 512" xmlns="http://www.w3.org/2000/svg"><path d="M496 109.5v0c-18.01 7.82-37.06 12.97-56.55 15.3v0c20.48-12 35.89-31.06 43.33-53.6h0c-19.37 11.32-40.53 19.27-62.56 23.5l0-.001c-18.76-19.66-44.75-30.76-71.91-30.7 -54.42 0-98.46 43.4-98.46 96.9h0c-.04 7.44.81 14.86 2.54 22.1v-.001c-78.91-3.7-152.61-40.48-203-101.3h0c-8.75 14.74-13.37 31.56-13.39 48.7 -.001 33.6 17.53 63.3 44 80.7v0c-15.69-.38-31.05-4.53-44.78-12.1v1.2c0 47 34 86.1 79 95h-.001c-8.47 2.25-17.19 3.39-25.94 3.4v0c-6.22.01-12.42-.6-18.51-1.8 12.51 38.5 48.92 66.5 92.05 67.3h0c-35.05 27-78.08 41.6-122.32 41.5v0c-7.86-.02-15.71-.48-23.5-1.4h-.001c45.01 28.74 97.33 43.94 150.74 43.8 181.36 0 280.44-147.7 280.44-275.8 0-4.2-.11-8.4-.31-12.5h-.001c19.23-13.68 35.86-30.68 49.13-50.2Z"/></svg>

<svg xmlns="http://www.w3.org/2000/svg" width="512" height="512" viewBox="0 0 512 512"><path d="M496,109.5a201.8,201.8,0,0,1-56.55,15.3,97.51,97.51,0,0,0,43.33-53.6,197.74,197.74,0,0,1-62.56,23.5A99.14,99.14,0,0,0,348.31,64c-54.42,0-98.46,43.4-98.46,96.9a93.21,93.21,0,0,0,2.54,22.1,280.7,280.7,0,0,1-203-101.3A95.69,95.69,0,0,0,36,130.4C36,164,53.53,193.7,80,211.1A97.5,97.5,0,0,1,35.22,199v1.2c0,47,34,86.1,79,95a100.76,100.76,0,0,1-25.94,3.4,94.38,94.38,0,0,1-18.51-1.8c12.51,38.5,48.92,66.5,92.05,67.3A199.59,199.59,0,0,1,39.5,405.6,203,203,0,0,1,16,404.2,278.68,278.68,0,0,0,166.74,448c181.36,0,280.44-147.7,280.44-275.8,0-4.2-.11-8.4-.31-12.5A198.48,198.48,0,0,0,496,109.5Z"/></svg>
